resources/dopamine bare.svg

<?xml version="1.0"?>
<!DOCTYPE svg PUBLIC '-//W3C//DTD SVG 1.0//EN'
          'http://www.w3.org/TR/2001/REC-SVG-20010904/DTD/svg10.dtd'>
<svg fill-opacity="1" xmlns:xlink="http://www.w3.org/1999/xlink" color-rendering="auto" color-interpolation="auto" text-rendering="auto" stroke="black" stroke-linecap="square" width="469" stroke-miterlimit="10" shape-rendering="auto" stroke-opacity="1" fill="black" stroke-dasharray="none" font-weight="normal" stroke-width="1" height="432" xmlns="http://www.w3.org/2000/svg" font-family="'Dialog'" font-style="normal" stroke-linejoin="miter" font-size="12px" stroke-dashoffset="0" image-rendering="auto"
><!--Generated by Marvin with Batik SVG Generator
MolSource:
<?xml version="1.0" encoding="windows-1252"?><cml xmlns="http://www.chemaxon.com" xmlns:xsi="http://www.w3.org/2001/XMLSchema-instance" xsi:schemaLocation="http://www.chemaxon.com/marvin/schema/mrvSchema_16_02_15.xsd" version="ChemAxon file format v16.02.15, generated by v17.21.0">
<MDocument><MChemicalStruct><molecule molID="m1"><atomArray atomID="a1 a2 a3 a4 a5 a6 a7 a8 a9 a10 a11" elementType="O O C C C C C C C C N" x2="-13.208554157929964 -13.24702685655273 -10.66393216125674 -11.955474181916776 -11.874875036101928 -10.502733869627047 -9.211191848967008 -9.291790994781856 -7.978945365232873 -6.585961825703734 -5.252282703875698" y2="4.641239480620729 7.787906912751098 7.78792331820723 6.949162798827956 5.411239480620729 4.712076681792769 5.550837201172043 7.088760519379271 7.8587605193792704 7.159615149780368 7.929615149780368"></atomArray><bondArray><bond id="b1" atomRefs2="a4 a2" order="1"></bond><bond id="b2" atomRefs2="a3 a4" order="1"></bond><bond id="b3" atomRefs2="a5 a1" order="1"></bond><bond id="b4" atomRefs2="a4 a5" order="2"></bond><bond id="b5" atomRefs2="a5 a6" order="1"></bond><bond id="b6" atomRefs2="a6 a7" order="2"></bond><bond id="b7" atomRefs2="a3 a8" order="2"></bond><bond id="b8" atomRefs2="a7 a8" order="1"></bond><bond id="b9" atomRefs2="a8 a9" order="1"></bond><bond id="b10" atomRefs2="a9 a10" order="1"></bond><bond id="b11" atomRefs2="a10 a11" order="1"></bond></bondArray></molecule></MChemicalStruct><MTextBox id="o2" color="#000000" toption="NOROT" fontScale="10.0" halign="LEFT" valign="TOP" autoSize="true"><Field name="text"><![CDATA[{D font=SansSerif,size=10}]]></Field><MPoint x="-1.875" y="-1.6041666269302368"></MPoint><MPoint x="-1.8750000000000142" y="-1.6041666269302368"></MPoint><MPoint x="-1.8750000000000142" y="-2.37416662693024"></MPoint><MPoint x="-1.8750000000000284" y="-2.37416662693024"></MPoint></MTextBox><MTextBox id="o3" color="#000000" toption="NOROT" fontScale="10.0" halign="LEFT" valign="TOP" autoSize="true"><Field name="text"><![CDATA[{D font=SansSerif,size=10}]]></Field><MPoint x="-11.166666984558105" y="8.416666984558105"></MPoint><MPoint x="-11.16666698455812" y="8.416666984558105"></MPoint><MPoint x="-11.16666698455812" y="7.6466669845581094"></MPoint><MPoint x="-11.166666984558134" y="7.6466669845581094"></MPoint></MTextBox></MDocument>
</cml>
--><defs id="genericDefs"
  /><g
  ><defs id="806501721580-defs1"
    ><clipPath clipPathUnits="userSpaceOnUse" id="806501721343-clipPath1"
      ><path d="M0 0 L469 0 L469 432 L0 432 L0 0 Z"
      /></clipPath
      ><clipPath clipPathUnits="userSpaceOnUse" id="806501721779-clipPath1"
      ><path d="M84.6148 53.9026 C73.2621 53.9026 64.0588 63.1058 64.0588 74.4586 C64.0588 85.8113 73.2621 95.0146 84.6148 95.0146 C95.9676 95.0146 105.1708 85.8113 105.1708 74.4586 C105.1708 63.1058 95.9676 53.9026 84.6148 53.9026 Z"
      /></clipPath
      ><clipPath clipPathUnits="userSpaceOnUse" id="806501721584-clipPath1"
      ><path d="M87.5192 109.2022 C76.1006 109.2022 66.8441 118.4587 66.8441 129.8773 C66.8441 141.2958 76.1006 150.5524 87.5192 150.5524 C98.9378 150.5524 108.1943 141.2958 108.1943 129.8773 C108.1943 118.4587 98.9378 109.2022 87.5192 109.2022 Z"
      /></clipPath
      ><clipPath clipPathUnits="userSpaceOnUse" id="806501721415-clipPath1"
      ><path d="M278.104 45.0972 C266.0764 45.0972 256.3262 54.8475 256.3262 66.875 C256.3262 78.9025 266.0764 88.6527 278.104 88.6527 C290.1315 88.6527 299.8817 78.9025 299.8817 66.875 C299.8817 54.8475 290.1315 45.0972 278.104 45.0972 Z"
      /></clipPath
      ><clipPath clipPathUnits="userSpaceOnUse" id="806501721163-clipPath1"
      ><path d="M-20.3979 -145.1241 L448.6021 -145.1241 L448.6021 286.8759 L-20.3979 286.8759 L-20.3979 -145.1241 Z"
      /></clipPath
      ><clipPath clipPathUnits="userSpaceOnUse" id="80650172113-clipPath1"
      ><path d="M-19.0115 -31.7346 L449.9885 -31.7346 L449.9885 400.2654 L-19.0115 400.2654 L-19.0115 -31.7346 Z"
      /></clipPath
      ><clipPath clipPathUnits="userSpaceOnUse" id="806501721363-clipPath1"
      ><path d="M-319.53 -26.6282 L149.47 -26.6282 L149.47 405.3718 L-319.53 405.3718 L-319.53 -26.6282 Z"
      /></clipPath
      ><clipPath clipPathUnits="userSpaceOnUse" id="806501721550-clipPath1"
      ><path d="M-345.3268 -36.965 L123.6731 -36.965 L123.6731 395.035 L-345.3268 395.035 L-345.3268 -36.965 Z"
      /></clipPath
    ></defs
    ><g fill="red" text-rendering="geometricPrecision" stroke="red"
    ><path d="M85.269 73.4512 L50.7896 51.06 C50.2331 50.6986 49.4894 50.8567 49.128 51.4132 C48.7667 51.9697 48.9248 52.7134 49.4812 53.0747 L83.9606 75.4659 C84.5171 75.8273 85.2608 75.6692 85.6222 75.1128 C85.9836 74.5563 85.8255 73.8126 85.269 73.4512 Z" stroke="none" clip-path="url(#806501721343-clipPath1)"
      /><path fill="black" d="M85.269 73.4512 L50.7896 51.06 C50.2331 50.6986 49.4894 50.8567 49.128 51.4132 C48.7667 51.9697 48.9248 52.7134 49.4812 53.0747 L83.9606 75.4659 C84.5171 75.8273 85.2608 75.6692 85.6222 75.1128 C85.9836 74.5563 85.8255 73.8126 85.269 73.4512 Z" clip-path="url(#806501721779-clipPath1)" stroke="none"
    /></g
    ><g text-rendering="geometricPrecision"
    ><path d="M130.501 43.2267 L83.9606 73.4512 C83.4042 73.8126 83.2461 74.5563 83.6075 75.1128 C83.9688 75.6692 84.7126 75.8273 85.269 75.4659 L131.8094 45.2414 C132.3659 44.88 132.524 44.1363 132.1626 43.5798 C131.8012 43.0234 131.0575 42.8653 130.501 43.2267 Z" stroke="none" clip-path="url(#806501721343-clipPath1)"
    /></g
    ><g fill="red" text-rendering="geometricPrecision" stroke="red"
    ><path d="M86.9186 128.8371 L51.1083 149.5122 C50.5336 149.8439 50.3369 150.5784 50.6686 151.153 C51.0004 151.7276 51.7348 151.9244 52.3094 151.5926 L88.1198 130.9175 C88.6944 130.5858 88.8912 129.8513 88.5594 129.2767 C88.2277 128.7021 87.4932 128.5053 86.9186 128.8371 Z" stroke="none" clip-path="url(#806501721343-clipPath1)"
      /><path fill="black" d="M86.9186 128.8371 L51.1083 149.5122 C50.5336 149.8439 50.3369 150.5784 50.6686 151.153 C51.0004 151.7276 51.7348 151.9244 52.3094 151.5926 L88.1198 130.9175 C88.6944 130.5858 88.8912 129.8513 88.5594 129.2767 C88.2277 128.7021 87.4932 128.5053 86.9186 128.8371 Z" clip-path="url(#806501721584-clipPath1)" stroke="none"
    /></g
    ><g text-rendering="geometricPrecision"
    ><path d="M96.1756 80.8424 C96.1408 80.1798 95.5758 79.6711 94.9132 79.7058 C94.2506 79.7405 93.7418 80.3055 93.7766 80.9681 L95.9503 122.4457 C95.985 123.1083 96.5501 123.6171 97.2127 123.5824 C97.8753 123.5476 98.384 122.9826 98.3493 122.32 ZM85.8143 74.3957 C85.7796 73.7331 85.2146 73.2243 84.552 73.2591 C83.8894 73.2938 83.3806 73.8588 83.4153 74.5214 L86.3197 129.9402 C86.3544 130.6027 86.9195 131.1115 87.5821 131.0768 C88.2447 131.0421 88.7534 130.477 88.7187 129.8144 Z" stroke="none" clip-path="url(#806501721343-clipPath1)"
    /></g
    ><g text-rendering="geometricPrecision"
    ><path d="M86.9739 130.9475 L136.4187 156.1417 C137.0098 156.4429 137.733 156.208 138.0342 155.6168 C138.3354 155.0256 138.1005 154.3025 137.5093 154.0012 L88.0645 128.8071 C87.4733 128.5058 86.7502 128.7408 86.449 129.332 C86.1477 129.9231 86.3827 130.6463 86.9739 130.9475 Z" stroke="none" clip-path="url(#806501721343-clipPath1)"
    /></g
    ><g text-rendering="geometricPrecision"
    ><path d="M136.7122 141.8675 C136.1558 142.2289 135.9977 142.9726 136.3591 143.5291 C136.7205 144.0855 137.4642 144.2436 138.0206 143.8822 L172.8529 121.2613 C173.4093 120.8999 173.5674 120.1562 173.206 119.5997 C172.8447 119.0433 172.1009 118.8852 171.5445 119.2466 ZM136.3098 154.0641 C135.7533 154.4255 135.5952 155.1692 135.9566 155.7257 C136.318 156.2821 137.0617 156.4402 137.6182 156.0788 L184.1586 125.8543 C184.7151 125.4929 184.8731 124.7492 184.5118 124.1927 C184.1504 123.6363 183.4067 123.4782 182.8502 123.8396 Z" stroke="none" clip-path="url(#806501721343-clipPath1)"
    /></g
    ><g text-rendering="geometricPrecision"
    ><path d="M131.7006 43.1638 C131.1094 42.8626 130.3863 43.0975 130.085 43.6887 C129.7838 44.2799 130.0187 45.003 130.6099 45.3043 L180.0547 70.4984 C180.6459 70.7997 181.369 70.5647 181.6703 69.9735 C181.9715 69.3823 181.7365 68.6592 181.1454 68.358 ZM133.3757 55.2515 C132.7845 54.9503 132.0614 55.1852 131.7601 55.7764 C131.4589 56.3676 131.6939 57.0907 132.285 57.392 L169.291 76.248 C169.8822 76.5493 170.6053 76.3143 170.9066 75.7231 C171.2078 75.132 170.9728 74.4088 170.3817 74.1076 Z" stroke="none" clip-path="url(#806501721343-clipPath1)"
    /></g
    ><g text-rendering="geometricPrecision"
    ><path d="M184.7039 124.784 L181.7995 69.3653 C181.7648 68.7027 181.1998 68.194 180.5372 68.2287 C179.8746 68.2634 179.3658 68.8285 179.4005 69.4911 L182.3049 124.9098 C182.3396 125.5724 182.9047 126.0811 183.5673 126.0464 C184.2299 126.0117 184.7386 125.4466 184.7039 124.784 Z" stroke="none" clip-path="url(#806501721343-clipPath1)"
    /></g
    ><g text-rendering="geometricPrecision"
    ><path d="M181.2077 70.4643 L228.5158 42.7175 C229.0881 42.3818 229.2799 41.6461 228.9442 41.0737 C228.6085 40.5014 227.8728 40.3097 227.3004 40.6453 L179.9924 68.3921 C179.42 68.7278 179.2283 69.4635 179.5639 70.0359 C179.8996 70.6082 180.6354 70.8 181.2077 70.4643 Z" stroke="none" clip-path="url(#806501721343-clipPath1)"
    /></g
    ><g text-rendering="geometricPrecision"
    ><path d="M227.3693 42.7549 L277.5652 67.9485 C278.1582 68.2461 278.8799 68.0068 279.1775 67.4138 C279.4751 66.8208 279.2358 66.0991 278.6428 65.8015 L228.4469 40.6079 C227.8539 40.3103 227.1322 40.5496 226.8346 41.1426 C226.537 41.7356 226.7763 42.4573 227.3693 42.7549 Z" stroke="none" clip-path="url(#806501721343-clipPath1)"
    /></g
    ><g fill="rgb(51,51,153)" text-rendering="geometricPrecision" stroke="rgb(51,51,153)"
    ><path d="M278.7045 67.9152 L316.4247 46.1374 C316.9993 45.8057 317.1961 45.0713 316.8643 44.4967 C316.5326 43.922 315.7982 43.7252 315.2236 44.057 L277.5034 65.8347 C276.9288 66.1665 276.732 66.9009 277.0638 67.4755 C277.3955 68.0502 278.1299 68.2469 278.7045 67.9152 Z" stroke="none" clip-path="url(#806501721343-clipPath1)"
      /><path fill="black" d="M278.7045 67.9152 L316.4247 46.1374 C316.9993 45.8057 317.1961 45.0713 316.8643 44.4967 C316.5326 43.922 315.7982 43.7252 315.2236 44.057 L277.5034 65.8347 C276.9288 66.1665 276.732 66.9009 277.0638 67.4755 C277.3955 68.0502 278.1299 68.2469 278.7045 67.9152 Z" clip-path="url(#806501721415-clipPath1)" stroke="none"
    /></g
    ><g fill="white" text-rendering="geometricPrecision" stroke="white"
    ><path d="M26.0317 148.4815 C23.4725 148.4815 21.3979 150.5561 21.3979 153.1153 L21.3979 162.3828 C21.3979 164.942 23.4725 167.0166 26.0317 167.0166 L42.811 167.0166 C45.3701 167.0166 47.4448 164.942 47.4448 162.3828 L47.4448 153.1153 C47.4448 150.5561 45.3701 148.4815 42.811 148.4815 Z" stroke="none" clip-path="url(#806501721343-clipPath1)"
    /></g
    ><g fill="red" text-rendering="geometricPrecision" font-size="19px" font-family="sans-serif" transform="translate(20.3979,145.1241)" stroke="red"
    ><text x="0" xml:space="preserve" y="20" clip-path="url(#806501721163-clipPath1)" stroke="none"
      >HO</text
    ></g
    ><g fill="white" text-rendering="geometricPrecision" font-size="19px" font-family="sans-serif" stroke="white"
    ><path d="M24.6453 35.092 C22.0861 35.092 20.0115 37.1667 20.0115 39.7258 L20.0115 48.9934 C20.0115 51.5526 22.0861 53.6272 24.6453 53.6272 L41.4246 53.6272 C43.9838 53.6272 46.0584 51.5526 46.0584 48.9934 L46.0584 39.7258 C46.0584 37.1667 43.9838 35.092 41.4246 35.092 Z" stroke="none" clip-path="url(#806501721343-clipPath1)"
      /><text x="0" y="20" transform="translate(19.0115,31.7346)" clip-path="url(#80650172113-clipPath1)" fill="red" stroke="none" xml:space="preserve"
      >HO</text
    ></g
    ><g fill="white" text-rendering="geometricPrecision" font-size="19px" font-family="sans-serif" stroke="white"
    ><path d="M325.0026 30.1829 C322.5324 30.1829 320.53 32.1854 320.53 34.6555 L320.53 43.6009 C320.53 46.071 322.5324 48.0735 325.0026 48.0735 L340.3542 48.0735 C342.8244 48.0735 344.8268 46.071 344.8268 43.6009 L344.8268 50.9571 C344.8268 53.4381 346.8381 55.4493 349.319 55.4493 L349.7888 55.4493 C352.2698 55.4493 354.281 53.4381 354.281 50.9571 L354.281 41.9728 C354.281 39.4918 352.2698 37.4806 349.7888 37.4806 L349.319 37.4806 C346.8381 37.4806 344.8268 39.4918 344.8268 41.9728 L344.8268 34.6555 C344.8268 32.1854 342.8244 30.1829 340.3542 30.1829 Z" stroke="none" clip-path="url(#806501721343-clipPath1)"
      /><text x="0" y="20" transform="translate(319.53,26.6282)" clip-path="url(#806501721363-clipPath1)" fill="rgb(51,51,153)" stroke="none" xml:space="preserve"
      >NH</text
    ></g
    ><g fill="rgb(51,51,153)" text-rendering="geometricPrecision" font-size="14px" font-family="sans-serif" transform="translate(345.3269,36.965)" stroke="rgb(51,51,153)"
    ><text x="0" xml:space="preserve" y="15" clip-path="url(#806501721550-clipPath1)" stroke="none"
      >2</text
    ></g
  ></g
></svg
>

<svg color-interpolation="auto" stroke="#000" stroke-linecap="square" width="469" stroke-miterlimit="10" height="432" xmlns="http://www.w3.org/2000/svg" font-family="'Dialog'" font-size="12"><defs><clipPath id="a"><path d="M0 0h469v432H0V0z"/></clipPath><clipPath id="b"><path d="M84.615 53.903c-11.353 0-20.556 9.203-20.556 20.556 0 11.352 9.203 20.556 20.556 20.556 11.353 0 20.556-9.204 20.556-20.556 0-11.353-9.203-20.556-20.556-20.556z"/></clipPath><clipPath id="c"><path d="M87.52 109.202c-11.42 0-20.676 9.257-20.676 20.675 0 11.419 9.257 20.675 20.675 20.675 11.419 0 20.675-9.256 20.675-20.675 0-11.418-9.256-20.675-20.675-20.675z"/></clipPath><clipPath id="d"><path d="M278.104 45.097c-12.028 0-21.778 9.75-21.778 21.778 0 12.028 9.75 21.778 21.778 21.778 12.028 0 21.778-9.75 21.778-21.778 0-12.028-9.75-21.778-21.778-21.778z"/></clipPath><clipPath id="e"><path d="M-20.398-145.124h469v432h-469v-432z"/></clipPath><clipPath id="f"><path d="M-19.012-31.735h469v432h-469v-432z"/></clipPath><clipPath id="g"><path d="M-319.53-26.628h469v432h-469v-432z"/></clipPath><clipPath id="h"><path d="M-345.327-36.965h469v432h-469v-432z"/></clipPath></defs><g fill="red" text-rendering="geometricPrecision" stroke="none"><path d="M85.269 73.451L50.789 51.06a1.201 1.201 0 1 0-1.308 2.015l34.48 22.39a1.201 1.201 0 1 0 1.308-2.014z" clip-path="url(#a)"/><path fill="#000" d="M85.269 73.451L50.789 51.06a1.201 1.201 0 1 0-1.308 2.015l34.48 22.39a1.201 1.201 0 1 0 1.308-2.014z" clip-path="url(#b)"/></g><path d="M130.501 43.227L83.961 73.45a1.201 1.201 0 1 0 1.308 2.015l46.54-30.225a1.201 1.201 0 1 0-1.308-2.014z" stroke="none" clip-path="url(#a)" text-rendering="geometricPrecision"/><g fill="red" text-rendering="geometricPrecision" stroke="none"><path d="M86.919 128.837l-35.81 20.675a1.201 1.201 0 1 0 1.2 2.08l35.81-20.675a1.2 1.2 0 1 0-1.2-2.08z" clip-path="url(#a)"/><path fill="#000" d="M86.919 128.837l-35.81 20.675a1.201 1.201 0 1 0 1.2 2.08l35.81-20.675a1.2 1.2 0 1 0-1.2-2.08z" clip-path="url(#c)"/></g><path d="M96.176 80.842a1.201 1.201 0 1 0-2.4.126l2.174 41.478a1.201 1.201 0 1 0 2.4-.126zm-10.362-6.446a1.2 1.2 0 1 0-2.399.125l2.905 55.42a1.201 1.201 0 1 0 2.399-.127z" stroke="none" clip-path="url(#a)" text-rendering="geometricPrecision"/><path d="M86.974 130.947l49.445 25.195a1.201 1.201 0 1 0 1.09-2.14l-49.444-25.195a1.2 1.2 0 1 0-1.091 2.14z" stroke="none" clip-path="url(#a)" text-rendering="geometricPrecision"/><path d="M136.712 141.868a1.201 1.201 0 1 0 1.309 2.014l34.832-22.62a1.201 1.201 0 1 0-1.309-2.015zm-.402 12.196a1.201 1.201 0 1 0 1.308 2.015l46.54-30.225a1.201 1.201 0 1 0-1.308-2.014zM131.7 43.164a1.201 1.201 0 1 0-1.09 2.14l49.445 25.194a1.201 1.201 0 1 0 1.09-2.14zm1.676 12.087a1.201 1.201 0 1 0-1.091 2.141l37.006 18.856a1.201 1.201 0 1 0 1.09-2.14z" stroke="none" clip-path="url(#a)" text-rendering="geometricPrecision"/><path d="M184.704 124.784l-2.905-55.419a1.2 1.2 0 1 0-2.399.126l2.905 55.419a1.201 1.201 0 1 0 2.399-.126z" stroke="none" clip-path="url(#a)" text-rendering="geometricPrecision"/><path d="M181.208 70.464l47.308-27.746a1.201 1.201 0 1 0-1.216-2.073l-47.308 27.747a1.201 1.201 0 1 0 1.216 2.072z" stroke="none" clip-path="url(#a)" text-rendering="geometricPrecision"/><path d="M227.37 42.755l50.195 25.193a1.201 1.201 0 1 0 1.078-2.146l-50.196-25.194a1.201 1.201 0 1 0-1.078 2.147z" stroke="none" clip-path="url(#a)" text-rendering="geometricPrecision"/><g fill="#339" text-rendering="geometricPrecision" stroke="none"><path d="M278.704 67.915l37.72-21.778a1.2 1.2 0 1 0-1.2-2.08l-37.72 21.778a1.201 1.201 0 1 0 1.2 2.08z" clip-path="url(#a)"/><path fill="#000" d="M278.704 67.915l37.72-21.778a1.2 1.2 0 1 0-1.2-2.08l-37.72 21.778a1.201 1.201 0 1 0 1.2 2.08z" clip-path="url(#d)"/></g><path d="M26.032 148.482a4.634 4.634 0 0 0-4.634 4.633v9.268a4.634 4.634 0 0 0 4.634 4.634H42.81a4.634 4.634 0 0 0 4.634-4.634v-9.268a4.634 4.634 0 0 0-4.634-4.633z" stroke="none" clip-path="url(#a)" fill="#fff" text-rendering="geometricPrecision"/><text y="20" clip-path="url(#e)" stroke="none" transform="translate(20.398 145.124)" fill="red" text-rendering="geometricPrecision" font-size="19" font-family="sans-serif">HO</text><g fill="#fff" text-rendering="geometricPrecision" font-size="19" font-family="sans-serif" stroke="none"><path d="M24.645 35.092a4.634 4.634 0 0 0-4.633 4.634v9.267a4.634 4.634 0 0 0 4.633 4.634h16.78a4.634 4.634 0 0 0 4.633-4.634v-9.267a4.634 4.634 0 0 0-4.633-4.634z" clip-path="url(#a)"/><text y="20" transform="translate(19.012 31.735)" clip-path="url(#f)" fill="red">HO</text></g><g fill="#fff" text-rendering="geometricPrecision" font-size="19" font-family="sans-serif" stroke="none"><path d="M325.003 30.183a4.473 4.473 0 0 0-4.473 4.473V43.6a4.473 4.473 0 0 0 4.473 4.473h15.351a4.473 4.473 0 0 0 4.473-4.473v7.356a4.492 4.492 0 0 0 4.492 4.492h.47a4.492 4.492 0 0 0 4.492-4.492v-8.984a4.492 4.492 0 0 0-4.492-4.492h-.47a4.492 4.492 0 0 0-4.492 4.492v-7.317a4.473 4.473 0 0 0-4.473-4.473z" clip-path="url(#a)"/><text y="20" transform="translate(319.53 26.628)" clip-path="url(#g)" fill="#339">NH</text></g><text y="15" clip-path="url(#h)" stroke="none" transform="translate(345.327 36.965)" fill="#339" text-rendering="geometricPrecision" font-size="14" font-family="sans-serif">2</text></svg>
